images/icons/touch-icon-iphone.svg

<svg width="49" height="57" viewBox="0 0 49 57" fill="none" xmlns="http://www.w3.org/2000/svg">
<path d="M23.6251 13.7179C23.0175 10.4037 24.5845 6.99326 26.4715 4.69452C28.5514 2.15886 32.1204 0.21361 35.1703 0C35.6861 3.47454 34.2681 6.85996 32.4015 9.2544C30.3993 11.8268 26.9566 13.8219 23.6251 13.7179ZM41.5159 25.7256C42.4599 23.0927 44.3293 20.7238 47.2299 19.1252C44.2983 15.4672 40.1837 13.344 36.2993 13.344C31.1611 13.344 28.9893 15.7918 25.4203 15.7918C21.7437 15.7918 18.954 13.344 14.5037 13.344C10.1396 13.344 5.4935 16.0038 2.54746 20.5474C1.4639 22.2257 0.729598 24.3122 0.329706 26.6361C-0.780286 33.1553 0.878066 41.6455 5.82657 49.1844C8.23262 52.8433 11.4393 56.9633 15.629 56.9996C19.3613 57.0357 20.4208 54.6134 25.4723 54.5875C30.5321 54.5596 31.4909 57.0247 35.2186 56.9884C39.4096 56.9532 42.7925 52.3934 45.1991 48.7354C46.9118 46.1108 47.5602 44.7851 48.8924 41.8172C42.1181 39.2621 39.3325 31.7985 41.5159 25.7256Z" fill="black"/>
</svg>

<svg width="49" height="57" fill="none" xmlns="http://www.w3.org/2000/svg"><path d="M23.625 13.718c-.608-3.314.96-6.725 2.846-9.023 2.08-2.536 5.65-4.481 8.7-4.695.515 3.475-.903 6.86-2.77 9.254-2.002 2.573-5.444 4.568-8.776 4.464Zm17.89 12.008c.945-2.633 2.814-5.002 5.715-6.6-2.932-3.659-7.046-5.782-10.93-5.782-5.139 0-7.31 2.448-10.88 2.448-3.676 0-6.466-2.448-10.916-2.448-4.364 0-9.01 2.66-11.957 7.203C1.464 22.226.73 24.312.33 26.637c-1.11 6.518.548 15.008 5.497 22.547 2.406 3.66 5.612 7.78 9.802 7.816 3.732.036 4.792-2.387 9.843-2.413 5.06-.027 6.019 2.438 9.747 2.401 4.19-.035 7.573-4.595 9.98-8.253 1.713-2.624 2.361-3.95 3.693-6.918-6.774-2.555-9.56-10.018-7.376-16.091Z" fill="#000"/></svg>
